packages/core/src/svgs/tokens/branded/CAH.svg

<svg width="24" height="24" viewBox="0 0 24 24" fill="none" xmlns="http://www.w3.org/2000/svg">
<path d="M12 22C17.5229 22 22 17.5229 22 12C22 6.47714 17.5229 2 12 2C6.47714 2 2 6.47714 2 12C2 17.5229 6.47714 22 12 22Z" fill="url(#paint0_linear_364_3636)"/>
<path d="M12.0007 19.0589C15.8992 19.0589 19.0595 15.8986 19.0595 12C19.0595 8.10156 15.8992 4.94122 12.0007 4.94122C8.10224 4.94122 4.94189 8.10156 4.94189 12C4.94189 15.8986 8.10224 19.0589 12.0007 19.0589Z" fill="url(#paint1_linear_364_3636)"/>
<path d="M21.9656 11.1644C21.7362 11.5175 21.148 12.1763 20.8715 12.4762H19.9891L19.8597 12.3997H18.1185L18.0715 12.2821L17.7891 12.4762H16.2127L15.8892 12.5351C15.2186 12.594 13.7715 12.7821 13.3538 13.041L13.4714 13.0351C14.0774 13.0115 16.195 12.9291 17.1186 14.4469H16.9068C17.2774 14.7527 18.0245 15.5939 18.0127 16.5704H17.8538C18.0068 16.8233 18.3127 17.5056 18.3127 18.2174C18.3127 18.9233 18.1127 19.3351 18.0127 19.4527L17.8538 19.3057C17.6773 19.6527 17.2715 20.2821 16.7892 20.7763C16.5538 20.9057 16.3067 21.0292 16.0539 21.1409C16.0303 20.7645 15.9479 20.1645 15.9009 19.8586L16.0656 19.7057C15.9457 19.5448 15.8615 19.3603 15.8185 19.1645C15.7361 18.8644 15.2715 17.9997 15.0479 17.6057V17.3292L14.8421 17.5174C14.7126 17.188 14.3773 16.4116 14.0479 15.935C13.9185 15.7703 13.9068 15.5703 13.9185 15.4939C13.9009 15.5998 13.8597 15.8057 13.8068 15.7586C13.5694 15.5372 13.3342 15.3137 13.1009 15.088C13.1186 14.7939 13.0009 14.0763 12.4304 13.5174L12.4361 13.7527C12.4715 14.7939 12.5656 17.5351 9.56558 21.7056C8.71685 21.4925 7.89998 21.1681 7.13618 20.741C9.36409 18.9096 10.9354 16.403 11.6126 13.5998C11.6126 13.4528 11.7304 13.294 11.795 13.2292C11.4891 13.1998 10.6421 13.4351 9.69501 14.5821L9.57739 14.7292C9.49503 14.6351 9.33623 14.3939 9.3538 14.1291C9.15902 14.3776 9.02959 14.6708 8.97736 14.9822C8.80089 15.0998 8.11854 15.6056 7.99502 15.9056C7.88663 15.6899 7.79612 15.4656 7.72443 15.235C7.69502 15.394 7.64795 15.7645 7.65384 15.9821L6.50678 16.7469C6.45218 16.5458 6.4362 16.3362 6.45972 16.1292C6.34207 16.3056 6.29502 16.6821 6.28913 16.8468C5.90091 16.9998 5.05973 17.3939 4.77737 17.7527C4.51896 17.3766 4.39086 16.9261 4.41267 16.4703C4.41267 15.8233 4.49502 14.7645 5.85384 13.2292C6.46854 12.5353 7.26849 12.0312 8.15972 11.7762C8.15972 11.6704 8.20679 11.4939 8.23031 11.4233L7.72443 11.7762L6.70678 11.6469L6.13031 12.0587L5.51267 11.9821L4.98325 12.4527L3.79502 12.5116L3.58914 12.6409L2.58325 12.5585C3.00678 11.5057 4.4656 9.40566 6.93619 9.40566C7.92539 9.39949 8.89965 9.64709 9.76584 10.125C10.6319 10.6028 11.361 11.295 11.8833 12.1351C11.6967 11.5754 11.4398 11.0417 11.1185 10.5468L11.2774 10.3174H11.0304C10.7799 9.75072 10.3662 9.27156 9.84201 8.94094V8.49978L9.69501 8.62918C9.14713 8.14867 8.52024 7.76655 7.84207 7.49977V7.05272L7.6303 7.22919C7.24972 6.94927 6.79608 6.7858 6.32443 6.75859C6.32443 6.53507 6.24208 6.12918 6.20678 5.95272L6.05972 6.17036C5.57768 5.77682 4.9761 5.559 4.35384 5.55271C5.23607 4.8029 6.34928 4.37923 7.50679 4.35272C8.55972 4.35272 9.45976 4.72918 9.78327 4.9233V4.68801C10.4421 5.06448 11.7715 5.99389 11.8362 6.66448H12.0303C12.3362 7.05272 12.9773 8.01743 13.1127 8.81741C13.1127 8.86448 13.0126 8.99977 12.9657 9.06447C13.048 9.13506 13.2127 9.37629 13.2127 9.79396C13.2127 10.2115 13.1479 10.5704 13.1127 10.6939C13.395 10.3586 14.0715 9.65272 14.5186 9.51739C14.5891 9.56447 14.6244 9.66452 14.6362 9.7057C14.9067 9.42913 15.7773 8.88213 17.1245 8.88213V9.06447C17.5185 8.97036 18.648 8.93507 19.9832 9.57627V9.81152C20.3774 9.91748 21.3127 10.3115 21.9597 11.0527L21.9656 11.1644Z" fill="#F0F3FA"/>
<defs>
<linearGradient id="paint0_linear_364_3636" x1="12" y1="2" x2="12" y2="22" gradientUnits="userSpaceOnUse">
<stop stop-color="#C16EE0"/>
<stop offset="1" stop-color="#5026A4"/>
</linearGradient>
<linearGradient id="paint1_linear_364_3636" x1="12.0007" y1="4.94122" x2="12.0007" y2="19.0589" gradientUnits="userSpaceOnUse">
<stop stop-color="#914AC4"/>
<stop offset="1" stop-color="#442281"/>
</linearGradient>
</defs>
</svg>

<svg xmlns="http://www.w3.org/2000/svg" width="24" height="24" fill="none" viewBox="0 0 24 24">
    <path fill="url(#CAH__a)" d="M12 22c5.523 0 10-4.477 10-10S17.523 2 12 2 2 6.477 2 12s4.477 10 10 10"/>
    <path fill="url(#CAH__b)" d="M12 19.059A7.059 7.059 0 1 0 12 4.94a7.059 7.059 0 0 0 0 14.118"/>
    <path fill="#F0F3FA" d="M21.966 11.164c-.23.354-.818 1.012-1.094 1.312h-.883l-.13-.076h-1.74l-.047-.118-.283.194h-1.576l-.324.06c-.67.058-2.117.246-2.535.505l.117-.006c.606-.024 2.724-.106 3.648 1.412h-.212c.37.306 1.117 1.147 1.106 2.123h-.16c.154.253.46.936.46 1.647 0 .706-.2 1.118-.3 1.236l-.16-.147a6.7 6.7 0 0 1-1.064 1.47q-.354.196-.735.365a18 18 0 0 0-.153-1.282l.165-.153a1.4 1.4 0 0 1-.247-.541c-.083-.3-.548-1.165-.771-1.56v-.276l-.206.188c-.13-.329-.465-1.105-.794-1.582-.13-.165-.141-.365-.13-.441-.017.106-.058.312-.111.265a53 53 0 0 1-.706-.671c.018-.294-.1-1.012-.67-1.57l.005.235c.036 1.04.13 3.782-2.87 7.953a10 10 0 0 1-2.43-.965 13.3 13.3 0 0 0 4.477-7.141c0-.147.117-.306.182-.37-.306-.03-1.153.205-2.1 1.352l-.118.147c-.082-.094-.24-.335-.223-.6a1.9 1.9 0 0 0-.377.853c-.176.118-.858.624-.982.924a4.4 4.4 0 0 1-.27-.671 4.6 4.6 0 0 0-.071.747l-1.147.765a1.7 1.7 0 0 1-.047-.618c-.118.177-.165.553-.17.718-.39.153-1.23.547-1.513.906a2.1 2.1 0 0 1-.364-1.283c0-.647.082-1.705 1.44-3.24a4.87 4.87 0 0 1 2.307-1.454c0-.106.047-.282.07-.353l-.506.353-1.017-.13-.577.413-.617-.077-.53.47-1.188.06-.206.129-1.006-.082c.424-1.053 1.883-3.153 4.353-3.153a5.78 5.78 0 0 1 4.947 2.73 7 7 0 0 0-.764-1.59l.158-.229h-.247a3.1 3.1 0 0 0-1.188-1.376V8.5l-.147.13A6.3 6.3 0 0 0 7.842 7.5v-.447l-.212.176a2.44 2.44 0 0 0-1.306-.47c0-.224-.082-.63-.117-.806l-.147.217a2.74 2.74 0 0 0-1.706-.617 5.05 5.05 0 0 1 3.153-1.2c1.053 0 1.953.376 2.276.57v-.235c.66.376 1.989 1.306 2.053 1.976h.194c.306.389.947 1.353 1.083 2.153 0 .047-.1.183-.147.247.082.071.247.312.247.73 0 .417-.065.776-.1.9.282-.335.959-1.041 1.406-1.177.07.047.105.148.117.189.27-.277 1.141-.824 2.489-.824v.182c.393-.094 1.523-.129 2.858.512v.236c.394.105 1.33.5 1.977 1.24z"/>
    <defs>
        <linearGradient id="CAH__a" x1="12" x2="12" y1="2" y2="22" gradientUnits="userSpaceOnUse">
            <stop stop-color="#C16EE0"/>
            <stop offset="1" stop-color="#5026A4"/>
        </linearGradient>
        <linearGradient id="CAH__b" x1="12.001" x2="12.001" y1="4.941" y2="19.059" gradientUnits="userSpaceOnUse">
            <stop stop-color="#914AC4"/>
            <stop offset="1" stop-color="#442281"/>
        </linearGradient>
    </defs>
</svg>
